src/media/icons/x.svg

<svg width="25" height="24" viewBox="0 0 25 24" fill="none" xmlns="http://www.w3.org/2000/svg">
<path d="M5.91016 1.90381H2.39612L10.0733 10.3273L1.04171 21.7898H8.11333L13.6521 14.8378L19.9897 21.7898H23.5058L15.2944 12.7799L23.9584 1.90381H16.7072L11.7007 8.25814L5.91016 1.90381ZM7.14347 19.7706H5.1963L17.7653 3.81694H19.8548L7.14347 19.7706Z" fill="white"/>
</svg>

<svg xmlns="http://www.w3.org/2000/svg" fill="none" viewBox="0 0 25 24">
    <path fill="#fff"
        d="M5.91 1.904H2.396l7.677 8.423L1.042 21.79h7.071l5.54-6.952 6.337 6.952h3.516l-8.212-9.01 8.664-10.876h-7.25L11.7 8.258 5.91 1.904ZM7.143 19.77H5.196l12.57-15.954h2.089L7.143 19.77Z" />
</svg>
